X: 133027
Q: "Scotch Jig."
M: 6/8
L: 1/8
K: Em
ue |\
vE2vE uE2ud | B2A B2d | AFD DEF | AFD DEF |\
E2E E2d | B2A B2A | B^cd AFD | E3 E2 ::\
uF |\
vG2vB BcB | G2B BcB | F2A D2A | FAF DEF |
u^d |\
eee EEE | eee EEE | ddd DDD | ddd DDD |\
eee EEE | eee EEE |
dcB AGF | E3 E2 u^d |\
eee EEE | eee EEE | ddd DDD | ddd DDD |\


